images/zhuyin/09.svg

<svg width="50" height="50" viewBox="0 0 50 50" fill="none" xmlns="http://www.w3.org/2000/svg">
<path d="M22.375 15.2188C22.7344 15.2188 23.1484 15.4844 23.6172 16.0156C24.1016 16.6094 24.3438 17.1562 24.3438 17.6562C24.3438 17.8438 24.2031 18.0234 23.9219 18.1953C23.5 18.4766 23.0938 19.0625 22.7031 19.9531C22.1875 20.9688 21.2969 22.2734 20.0312 23.8672C19.5938 24.4922 19.375 24.9922 19.375 25.3672C19.375 25.7109 19.6094 26.1328 20.0781 26.6328L23.0078 29.8672C23.7266 30.6641 24.0781 31.4375 24.0625 32.1875C24.0625 32.8594 23.9609 33.3906 23.7578 33.7812C23.6328 34.0312 23.4219 34.1562 23.125 34.1562C22.875 34.1562 22.6562 34.0938 22.4688 33.9688C22.1562 33.6719 21.8438 33.1172 21.5312 32.3047C20.6562 30.4297 19.875 28.8906 19.1875 27.6875C18.4375 26.5 18.0625 25.7266 18.0625 25.3672C18.0625 24.8516 18.3125 24.1641 18.8125 23.3047C19.3125 22.5391 19.8828 21.5 20.5234 20.1875C21.4453 18.125 21.9375 16.7188 22 15.9688C22.0625 15.4688 22.1875 15.2188 22.375 15.2188ZM29.4062 15.2188C29.7656 15.2188 30.1797 15.4844 30.6484 16.0156C31.1328 16.6094 31.375 17.1562 31.375 17.6562C31.375 17.8438 31.2344 18.0234 30.9531 18.1953C30.5156 18.4766 30.1016 19.0625 29.7109 19.9531C29.1953 20.9688 28.2891 22.2734 26.9922 23.8672C26.5391 24.4922 26.3125 24.9922 26.3125 25.3672C26.3125 25.7109 26.5469 26.1328 27.0156 26.6328L29.9453 29.8672C30.6641 30.6641 31.0156 31.4375 31 32.1875C31 32.8594 30.8984 33.3906 30.6953 33.7812C30.5547 34.0312 30.3438 34.1562 30.0625 34.1562C29.8125 34.1562 29.6328 34.0938 29.5234 33.9688C29.1953 33.6719 28.875 33.1172 28.5625 32.3047C27.6875 30.4297 26.9062 28.8906 26.2188 27.6875C25.4062 26.5 25 25.7266 25 25.3672C25 24.8516 25.25 24.1641 25.75 23.3047C26.2656 22.5391 26.8594 21.5 27.5312 20.1875C28.4688 18.125 28.9688 16.7188 29.0312 15.9688C29.0938 15.4688 29.2188 15.2188 29.4062 15.2188Z" fill="#333333"/>
<path d="M23.6172 16.0156L24.0046 15.6996L23.9985 15.6921L23.9921 15.6848L23.6172 16.0156ZM23.9219 18.1953L23.6611 17.7687L23.6527 17.7738L23.6445 17.7793L23.9219 18.1953ZM22.7031 19.9531L23.149 20.1795L23.1553 20.1669L23.161 20.154L22.7031 19.9531ZM20.0312 23.8672L19.6397 23.5562L19.6303 23.5681L19.6216 23.5805L20.0312 23.8672ZM20.0781 26.6328L20.4488 26.2971L20.4429 26.2908L20.0781 26.6328ZM23.0078 29.8672L23.3791 29.5323L23.3784 29.5315L23.0078 29.8672ZM24.0625 32.1875L23.5625 32.1771V32.1875H24.0625ZM23.7578 33.7812L23.3141 33.5505L23.3106 33.5576L23.7578 33.7812ZM22.4688 33.9688L22.1244 34.3312L22.1556 34.3609L22.1914 34.3848L22.4688 33.9688ZM21.5312 32.3047L21.9979 32.1252L21.9917 32.109L21.9843 32.0932L21.5312 32.3047ZM19.1875 27.6875L19.6216 27.4394L19.6161 27.4298L19.6102 27.4205L19.1875 27.6875ZM18.8125 23.3047L18.3939 23.0313L18.3868 23.0421L18.3803 23.0532L18.8125 23.3047ZM20.5234 20.1875L20.9728 20.4068L20.9765 20.3992L20.9799 20.3915L20.5234 20.1875ZM22 15.9688L21.5039 15.9067L21.5026 15.917L21.5017 15.9272L22 15.9688ZM30.6484 16.0156L31.0359 15.6996L31.0298 15.6921L31.0234 15.6848L30.6484 16.0156ZM30.9531 18.1953L30.6923 17.7686L30.6827 17.7747L30.9531 18.1953ZM29.7109 19.9531L30.1568 20.1795L30.1632 20.1669L30.1688 20.154L29.7109 19.9531ZM26.9922 23.8672L26.6044 23.5516L26.5956 23.5624L26.5874 23.5737L26.9922 23.8672ZM27.0156 26.6328L27.3863 26.2971L27.3804 26.2908L27.0156 26.6328ZM29.9453 29.8672L30.3166 29.5323L30.3159 29.5315L29.9453 29.8672ZM31 32.1875L30.5 32.1771V32.1875H31ZM30.6953 33.7812L31.1311 34.0264L31.1351 34.0192L31.1389 34.0119L30.6953 33.7812ZM29.5234 33.9688L29.8997 33.6395L29.8805 33.6175L29.8589 33.598L29.5234 33.9688ZM28.5625 32.3047L29.0292 32.1252L29.0229 32.109L29.0156 32.0932L28.5625 32.3047ZM26.2188 27.6875L26.6529 27.4394L26.6428 27.4219L26.6314 27.4052L26.2188 27.6875ZM25.75 23.3047L25.3353 23.0254L25.3261 23.039L25.3178 23.0532L25.75 23.3047ZM27.5312 20.1875L27.9763 20.4153L27.9816 20.405L27.9864 20.3944L27.5312 20.1875ZM29.0312 15.9688L28.5351 15.9067L28.5338 15.917L28.533 15.9272L29.0312 15.9688ZM22.375 15.7188C22.5015 15.7188 22.7863 15.8297 23.2423 16.3464L23.9921 15.6848C23.5106 15.1391 22.9672 14.7188 22.375 14.7188V15.7188ZM23.2298 16.3317C23.6782 16.8814 23.8438 17.3187 23.8438 17.6562H24.8438C24.8438 16.9938 24.5249 16.3373 24.0046 15.6996L23.2298 16.3317ZM23.8438 17.6562C23.8438 17.6157 23.8614 17.602 23.8445 17.6235C23.8236 17.6502 23.7714 17.7013 23.6611 17.7687L24.1826 18.622C24.4996 18.4283 24.8438 18.1185 24.8438 17.6562H23.8438ZM23.6445 17.7793C23.0985 18.1433 22.6446 18.8416 22.2452 19.7523L23.161 20.154C23.5429 19.2834 23.9015 18.8098 24.1992 18.6113L23.6445 17.7793ZM22.2573 19.7268C21.7643 20.6978 20.898 21.9717 19.6397 23.5562L20.4228 24.1781C21.6958 22.5751 22.6107 21.2397 23.149 20.1795L22.2573 19.7268ZM19.6216 23.5805C19.1754 24.2179 18.875 24.8276 18.875 25.3672H19.875C19.875 25.1568 20.0121 24.7665 20.4409 24.1539L19.6216 23.5805ZM18.875 25.3672C18.875 25.9159 19.2321 26.4614 19.7134 26.9748L20.4429 26.2908C19.9867 25.8042 19.875 25.506 19.875 25.3672H18.875ZM19.7075 26.9685L22.6372 30.2029L23.3784 29.5315L20.4487 26.2971L19.7075 26.9685ZM22.6365 30.2021C23.3066 30.945 23.5746 31.6001 23.5626 32.1771L24.5624 32.1979C24.5816 31.2749 24.1465 30.3831 23.3791 29.5323L22.6365 30.2021ZM23.5625 32.1875C23.5625 32.8176 23.4659 33.2589 23.3142 33.5506L24.2014 34.0119C24.456 33.5223 24.5625 32.9012 24.5625 32.1875H23.5625ZM23.3106 33.5576C23.2849 33.6091 23.2627 33.6254 23.251 33.6324C23.2374 33.6404 23.2027 33.6562 23.125 33.6562V34.6562C23.3442 34.6562 23.5633 34.6096 23.7608 34.4926C23.96 34.3746 24.1058 34.2034 24.205 34.0049L23.3106 33.5576ZM23.125 33.6562C22.9625 33.6562 22.8426 33.6171 22.7461 33.5527L22.1914 34.3848C22.4699 34.5704 22.7875 34.6562 23.125 34.6562V33.6562ZM22.8131 33.6063C22.5858 33.3903 22.3055 32.925 21.9979 32.1252L21.0646 32.4842C21.382 33.3094 21.7267 33.9535 22.1244 34.3312L22.8131 33.6063ZM21.9843 32.0932C21.1061 30.2112 20.3184 28.6588 19.6216 27.4394L18.7534 27.9356C19.4316 29.1225 20.2064 30.6482 21.0782 32.5161L21.9843 32.0932ZM19.6102 27.4205C19.2398 26.834 18.9696 26.3615 18.7937 25.9987C18.6054 25.6104 18.5625 25.4203 18.5625 25.3672H17.5625C17.5625 25.6735 17.7071 26.0498 17.8938 26.4349C18.0929 26.8456 18.3852 27.3535 18.7648 27.9545L19.6102 27.4205ZM18.5625 25.3672C18.5625 24.9894 18.7548 24.398 19.2447 23.5561L18.3803 23.0532C17.8702 23.9301 17.5625 24.7137 17.5625 25.3672H18.5625ZM19.2311 23.5781C19.7471 22.788 20.3277 21.7284 20.9728 20.4068L20.0741 19.9682C19.4379 21.2716 18.8779 22.2901 18.3939 23.0313L19.2311 23.5781ZM20.9799 20.3915C21.444 19.3533 21.8035 18.4723 22.0559 17.7511C22.3052 17.039 22.4616 16.4509 22.4983 16.0103L21.5017 15.9272C21.4759 16.2366 21.355 16.7267 21.1121 17.4208C20.8723 18.1059 20.5248 18.9592 20.067 19.9835L20.9799 20.3915ZM22.4961 16.0308C22.51 15.9201 22.5263 15.8313 22.5437 15.7619C22.5614 15.6911 22.5778 15.65 22.5878 15.6299C22.5987 15.608 22.5936 15.6279 22.5584 15.6561C22.5152 15.6906 22.4496 15.7188 22.375 15.7188V14.7188C22.0064 14.7188 21.7941 14.9813 21.6934 15.1826C21.5929 15.3837 21.5374 15.6381 21.5039 15.9067L22.4961 16.0308ZM29.4062 15.7188C29.5328 15.7188 29.8176 15.8297 30.2735 16.3464L31.0234 15.6848C30.5418 15.1391 29.9985 14.7188 29.4062 14.7188V15.7188ZM30.261 16.3317C30.7095 16.8814 30.875 17.3187 30.875 17.6562H31.875C31.875 16.9938 31.5561 16.3373 31.0359 15.6996L30.261 16.3317ZM30.875 17.6562C30.875 17.6157 30.8926 17.602 30.8758 17.6235C30.8548 17.6502 30.8027 17.7013 30.6924 17.7687L31.2139 18.622C31.5308 18.4283 31.875 18.1185 31.875 17.6562H30.875ZM30.6827 17.7747C30.1172 18.1383 29.6539 18.8384 29.253 19.7523L30.1688 20.154C30.5493 19.2866 30.9141 18.8148 31.2235 18.6159L30.6827 17.7747ZM29.2651 19.7268C28.7736 20.695 27.8936 21.9672 26.6044 23.5516L27.38 24.1828C28.6845 22.5797 29.6171 21.2425 30.1568 20.1795L29.2651 19.7268ZM26.5874 23.5737C26.1262 24.2098 25.8125 24.8221 25.8125 25.3672H26.8125C26.8125 25.1623 26.9519 24.7745 27.397 24.1607L26.5874 23.5737ZM25.8125 25.3672C25.8125 25.9159 26.1696 26.4614 26.6509 26.9748L27.3804 26.2908C26.9242 25.8042 26.8125 25.506 26.8125 25.3672H25.8125ZM26.645 26.9685L29.5747 30.2029L30.3159 29.5315L27.3862 26.2971L26.645 26.9685ZM29.574 30.2021C30.2441 30.945 30.5121 31.6001 30.5001 32.1771L31.4999 32.1979C31.5191 31.2749 31.084 30.3831 30.3166 29.5323L29.574 30.2021ZM30.5 32.1875C30.5 32.8176 30.4034 33.2589 30.2517 33.5506L31.1389 34.0119C31.3935 33.5223 31.5 32.9012 31.5 32.1875H30.5ZM30.2595 33.5361C30.2053 33.6326 30.1587 33.6562 30.0625 33.6562V34.6562C30.5288 34.6562 30.9041 34.4299 31.1311 34.0264L30.2595 33.5361ZM30.0625 33.6562C29.9769 33.6562 29.9279 33.6453 29.9045 33.6371C29.8845 33.6302 29.8895 33.6278 29.8997 33.6395L29.1472 34.298C29.391 34.5767 29.7417 34.6562 30.0625 34.6562V33.6562ZM29.8589 33.598C29.6219 33.3835 29.3357 32.9222 29.0292 32.1252L28.0958 32.4842C28.4143 33.3122 28.7688 33.9602 29.188 34.3395L29.8589 33.598ZM29.0156 32.0932C28.1373 30.2112 27.3496 28.6588 26.6529 27.4394L25.7846 27.9356C26.4629 29.1225 27.2377 30.6482 28.1094 32.5161L29.0156 32.0932ZM26.6314 27.4052C26.2301 26.8186 25.9376 26.3464 25.7473 25.9843C25.6522 25.8032 25.5871 25.658 25.5468 25.5456C25.5268 25.4898 25.5145 25.4465 25.5074 25.4142C25.5002 25.3811 25.5 25.3668 25.5 25.3672H24.5C24.5 25.5405 24.5466 25.7188 24.6055 25.8831C24.6668 26.0539 24.754 26.2437 24.862 26.4493C25.0781 26.8606 25.3949 27.3689 25.8061 27.9698L26.6314 27.4052ZM25.5 25.3672C25.5 24.9894 25.6923 24.398 26.1822 23.5561L25.3178 23.0532C24.8077 23.9301 24.5 24.7137 24.5 25.3672H25.5ZM26.1647 23.584C26.696 22.7951 27.3 21.7365 27.9763 20.4153L27.0862 19.9597C26.4187 21.2635 25.8352 22.283 25.3353 23.0254L26.1647 23.584ZM27.9864 20.3944C28.4584 19.3561 28.824 18.4749 29.0805 17.7534C29.3337 17.0412 29.4927 16.4522 29.5295 16.0103L28.533 15.9272C28.5073 16.2353 28.385 16.7244 28.1383 17.4184C27.8948 18.1033 27.5416 18.9564 27.0761 19.9806L27.9864 20.3944ZM29.5274 16.0308C29.5412 15.9201 29.5576 15.8313 29.5749 15.7619C29.5926 15.6911 29.609 15.65 29.6191 15.6299C29.63 15.608 29.6249 15.6279 29.5897 15.6561C29.5465 15.6906 29.4808 15.7188 29.4062 15.7188V14.7188C29.0377 14.7188 28.8253 14.9813 28.7247 15.1826C28.6241 15.3837 28.5687 15.6381 28.5351 15.9067L29.5274 16.0308Z" fill="#333333"/>
</svg>

<svg xmlns="http://www.w3.org/2000/svg" width="50" height="50" fill="none"><path fill="#333" d="M22.375 15.219c.36 0 .773.265 1.242.797.485.593.727 1.14.727 1.64 0 .188-.14.367-.422.54-.422.28-.828.866-1.219 1.757-.515 1.016-1.406 2.32-2.672 3.914-.437.625-.656 1.125-.656 1.5 0 .344.234.766.703 1.266l2.93 3.234c.719.797 1.07 1.57 1.055 2.32 0 .672-.102 1.204-.305 1.594-.125.25-.336.375-.633.375-.25 0-.469-.062-.656-.187-.313-.297-.625-.852-.938-1.664-.875-1.875-1.656-3.414-2.343-4.617-.75-1.188-1.125-1.961-1.125-2.32 0-.516.25-1.204.75-2.063.5-.766 1.07-1.805 1.71-3.117.922-2.063 1.415-3.47 1.477-4.22.063-.5.188-.75.375-.75Zm7.031 0c.36 0 .774.265 1.242.797.485.593.727 1.14.727 1.64 0 .188-.14.367-.422.54-.437.28-.851.866-1.242 1.757-.516 1.016-1.422 2.32-2.719 3.914-.453.625-.68 1.125-.68 1.5 0 .344.235.766.704 1.266l2.93 3.234c.718.797 1.07 1.57 1.054 2.32 0 .672-.102 1.204-.305 1.594a.683.683 0 0 1-.633.375c-.25 0-.43-.062-.539-.187-.328-.297-.648-.852-.96-1.664-.875-1.875-1.657-3.414-2.344-4.617C25.406 26.5 25 25.727 25 25.367c0-.516.25-1.204.75-2.063.516-.766 1.11-1.805 1.781-3.117.938-2.063 1.438-3.47 1.5-4.22.063-.5.188-.75.375-.75Z"/><path fill="#333" d="m23.617 16.016.388-.316-.006-.008-.007-.007-.375.33Zm.305 2.18-.26-.427-.01.005-.008.005.278.416Zm-1.219 1.757.446.227.006-.013.006-.013-.458-.2Zm-2.672 3.914-.391-.31-.01.011-.008.012.41.287Zm.047 2.766.37-.336-.005-.006-.365.342Zm2.93 3.234.371-.335-.371.335Zm1.055 2.32-.5-.01v.01h.5Zm-.305 1.594-.444-.23-.003.007.447.223Zm-1.29.188-.344.362.032.03.035.024.278-.416Zm-.937-1.664.467-.18-.006-.016-.008-.016-.453.212Zm-2.343-4.617.434-.249-.006-.01-.006-.008-.422.267Zm-.375-4.383-.42-.274-.006.011-.007.011.433.252Zm1.71-3.117.45.219.004-.008.003-.008-.457-.203ZM22 15.968l-.496-.061-.001.01-.001.01.498.042Zm8.648.048.388-.316-.006-.008-.007-.007-.375.33Zm.305 2.18-.26-.427-.01.006.27.42Zm-1.242 1.757.446.227.006-.013.006-.013-.458-.2Zm-2.719 3.914-.388-.315-.008.01-.009.012.405.293Zm.024 2.766.37-.336-.006-.006-.364.342Zm2.93 3.234.37-.335-.37.335ZM31 32.187l-.5-.01v.01h.5Zm-.305 1.594.436.245.004-.007.004-.007-.444-.23Zm-1.172.188.377-.33-.02-.022-.021-.019-.336.37Zm-.96-1.664.466-.18-.006-.016-.007-.016-.453.212Zm-2.344-4.617.434-.249-.01-.017-.012-.017-.412.282Zm-.469-4.383-.415-.28-.009.014-.008.014.432.252Zm1.781-3.117.445.227.006-.01.004-.01-.455-.207Zm1.5-4.22-.496-.061-.001.01-.001.01.498.042Zm-6.656-.25c.127 0 .411.112.867.628l.75-.661c-.481-.546-1.025-.966-1.617-.966v1Zm.855.614c.448.55.614.987.614 1.324h1c0-.662-.32-1.319-.84-1.956l-.774.632Zm.614 1.324c0-.04.017-.054 0-.032a.706.706 0 0 1-.183.145l.522.853c.317-.194.66-.503.66-.966h-1Zm-.2.123c-.545.364-1 1.063-1.399 1.973l.916.402c.382-.87.74-1.344 1.038-1.543l-.555-.832Zm-1.387 1.948c-.493.97-1.359 2.245-2.617 3.83l.783.621c1.273-1.603 2.188-2.938 2.726-3.998l-.892-.453Zm-2.635 3.854c-.447.637-.747 1.247-.747 1.786h1c0-.21.137-.6.566-1.213l-.82-.573Zm-.747 1.786c0 .549.357 1.094.838 1.608l.73-.684c-.456-.487-.568-.785-.568-.924h-1Zm.832 1.601 2.93 3.235.741-.671-2.93-3.235-.74.671Zm2.93 3.234c.67.743.938 1.398.926 1.975l1 .02c.019-.922-.416-1.814-1.184-2.665l-.742.67Zm.925 1.985c0 .63-.096 1.072-.248 1.364l.887.46c.255-.489.361-1.11.361-1.824h-1Zm-.251 1.37c-.026.052-.048.068-.06.075-.014.008-.048.024-.126.024v1c.22 0 .438-.046.636-.163.199-.118.345-.29.444-.488l-.894-.447Zm-.186.1a.657.657 0 0 1-.379-.104l-.555.832c.279.185.597.271.934.271v-1Zm-.312-.05c-.227-.217-.508-.682-.815-1.482l-.933.36c.317.824.662 1.468 1.06 1.846l.688-.725Zm-.829-1.514c-.878-1.882-1.666-3.434-2.362-4.654l-.869.497c.679 1.186 1.453 2.712 2.325 4.58l.906-.423ZM19.61 27.42c-.37-.586-.64-1.059-.816-1.421-.189-.389-.232-.579-.232-.632h-1c0 .306.145.683.332 1.068.199.41.491.919.87 1.52l.846-.534Zm-1.047-2.053c0-.378.192-.969.682-1.81l-.865-.504c-.51.877-.817 1.66-.817 2.314h1Zm.668-1.789c.516-.79 1.097-1.85 1.742-3.171l-.899-.439c-.636 1.304-1.196 2.322-1.68 3.063l.837.547Zm1.749-3.186c.464-1.039.823-1.92 1.076-2.64.25-.713.406-1.301.442-1.742l-.996-.083c-.026.31-.147.8-.39 1.494-.24.685-.587 1.538-1.045 2.563l.913.407Zm1.516-4.361c.014-.11.03-.2.048-.27a.684.684 0 0 1 .044-.131c.01-.022.006-.002-.03.026a.3.3 0 0 1-.183.063v-1c-.369 0-.58.262-.682.464-.1.2-.156.455-.19.724l.993.124Zm6.91-.312c.127 0 .412.11.867.627l.75-.661c-.481-.546-1.024-.966-1.617-.966v1Zm.855.613c.448.55.614.987.614 1.324h1c0-.662-.319-1.319-.84-1.956l-.774.632Zm.614 1.324c0-.04.018-.054 0-.032a.708.708 0 0 1-.183.145l.522.853c.317-.194.661-.503.661-.966h-1Zm-.192.119c-.566.363-1.03 1.063-1.43 1.977l.916.402c.38-.867.745-1.34 1.055-1.538l-.541-.841Zm-1.418 1.952c-.491.968-1.371 2.24-2.66 3.825l.775.63c1.305-1.602 2.237-2.94 2.777-4.002l-.892-.453Zm-2.678 3.847c-.46.636-.774 1.248-.774 1.793h1c0-.205.139-.593.584-1.206l-.81-.587Zm-.774 1.793c0 .549.357 1.094.838 1.608l.73-.684c-.457-.487-.569-.785-.569-.924h-1Zm.832 1.601 2.93 3.235.74-.671-2.929-3.235-.741.671Zm2.929 3.234c.67.743.938 1.398.926 1.975l1 .02c.02-.922-.416-1.814-1.183-2.665l-.743.67Zm.926 1.985c0 .63-.097 1.072-.248 1.364l.887.46c.255-.489.361-1.11.361-1.824h-1Zm-.24 1.35c-.055.096-.101.12-.198.12v1c.467 0 .842-.227 1.07-.63l-.873-.49Zm-.198.12a.5.5 0 0 1-.158-.02c-.02-.007-.014-.01-.004.002l-.753.659c.244.279.595.358.916.358v-1Zm-.203-.059c-.237-.215-.523-.676-.83-1.473l-.933.36c.318.827.673 1.475 1.092 1.855l.67-.742Zm-.843-1.505c-.879-1.882-1.666-3.434-2.363-4.654l-.868.497c.678 1.186 1.453 2.712 2.324 4.58l.907-.423Zm-2.385-4.688a15.147 15.147 0 0 1-.884-1.42 3.584 3.584 0 0 1-.2-.44c-.02-.055-.032-.099-.04-.13-.007-.034-.007-.048-.007-.048h-1c0 .174.047.352.105.516.062.17.149.36.257.566.216.412.533.92.944 1.52l.825-.564ZM25.5 25.367c0-.378.192-.969.682-1.81l-.864-.504c-.51.877-.818 1.66-.818 2.314h1Zm.665-1.783c.531-.789 1.135-1.848 1.811-3.169l-.89-.455c-.667 1.303-1.25 2.323-1.75 3.065l.829.559Zm1.821-3.19a34.67 34.67 0 0 0 1.095-2.64c.253-.713.412-1.302.448-1.744l-.996-.083c-.026.308-.148.797-.395 1.491a33.748 33.748 0 0 1-1.062 2.563l.91.413Zm1.541-4.363c.014-.11.03-.2.048-.27a.675.675 0 0 1 .044-.131c.011-.022.006-.002-.03.026a.3.3 0 0 1-.183.063v-1c-.368 0-.58.262-.681.464-.1.2-.156.455-.19.724l.992.124Z"/></svg>
